;FLAVOR:Marlin
;TIME:194
;Filament used: 0.0736833m
;Layer height: 0.2
;MINX:95.18
;MINY:95.18
;MINZ:0.2
;MAXX:114.82
;MAXY:114.82
;MAXZ:8.075
;TARGET_MACHINE.NAME:Anycubic i3 Mega
;Generated with Cura_SteamEngine 5.8.1
M140 S60
M105
M190 S60
M104 S200
M105
M109 S200
M82 ;absolute extrusion mode
G21 ;metric values
G90 ;absolute positioning
M82 ;set extruder to absolute mode
M107 ;start with the fan off
G28 X0 Y0 ;move X/Y to min endstops
G28 Z0 ;move Z to min endstops
G1 Z15.0 F100 ;move the platform down 15mm
G92 E0 ;zero the extruded length
G1 F200 E3 ;extrude 3mm of feed stock
G92 E0 ;zero the extruded length again
G1 F100
G0 Y20 F100
M117 Printing...
G5
G92 E0
G92 E0
G1 F2400 E-6
;LAYER_COUNT:40
;LAYER:0
M107
M204 S3000
M205 X10 Y10
G1 F600 Z0.275
G0 F3000 X97.322 Y97.467 Z0.275
M204 S1800
M205 X8 Y8
;TYPE:SKIRT
G1 F600 Z0.2
G1 F2400 E0
G1 X97.948 Y96.892 E0.03958
G1 X98.641 Y96.389 E0.07945
G1 X99.514 Y95.905 E0.12593
G1 X100.243 Y95.607 E0.1626
G1 X101.187 Y95.347 E0.2082
G1 X102.656 Y95.18 E0.27704
G1 X106.625 Y95.18 E0.46185
G1 X107.399 Y95.191 E0.4979
G1 X108.326 Y95.266 E0.5412
G1 X109.298 Y95.466 E0.58741
G1 X109.979 Y95.69 E0.6208
G1 X111.073 Y96.214 E0.67728
G1 X111.835 Y96.721 E0.7199
G1 X112.479 Y97.269 E0.75927
G1 X113.019 Y97.842 E0.79593
G1 X113.648 Y98.698 E0.8454
G1 X114.063 Y99.447 E0.88527
G1 X114.413 Y100.305 E0.92842
G1 X114.673 Y101.311 E0.9768
G1 X114.817 Y102.595 E1.03696
G1 X114.82 Y106.658 E1.22615
G1 X114.807 Y107.465 E1.26374
G1 X114.716 Y108.459 E1.31021
G1 X114.52 Y109.354 E1.35288
G1 X114.241 Y110.154 E1.39233
G1 X113.843 Y110.976 E1.43485
G1 X113.419 Y111.643 E1.47166
G1 X112.685 Y112.527 E1.52516
G1 X112.066 Y113.097 E1.56434
G1 X111.43 Y113.565 E1.60111
G1 X110.433 Y114.119 E1.65422
G1 X109.648 Y114.429 E1.69352
G1 X108.836 Y114.654 E1.73276
G1 X107.345 Y114.82 E1.80261
G1 X103.31 Y114.82 E1.9905
G1 X102.533 Y114.807 E2.02668
G1 X101.545 Y114.718 E2.07287
G1 X100.84 Y114.573 E2.10639
G1 X99.837 Y114.237 E2.15564
G1 X99.071 Y113.868 E2.19524
G1 X98.23 Y113.326 E2.24182
G1 X97.47 Y112.683 E2.28818
G1 X96.939 Y112.11 E2.32456
G1 X96.36 Y111.317 E2.37028
G1 X96.005 Y110.692 E2.40375
G1 X95.57 Y109.648 E2.45641
G1 X95.367 Y108.916 E2.49178
G1 X95.18 Y107.339 E2.56573
G1 X95.18 Y103.27 E2.7552
G1 X95.193 Y102.528 E2.78975
G1 X95.264 Y101.676 E2.82956
G1 X95.446 Y100.778 E2.87223
G1 X95.768 Y99.828 E2.91894
G1 X96.211 Y98.932 E2.96548
G1 X96.682 Y98.217 E3.00535
G1 X97.322 Y97.467 E3.05126
M204 S3000
M205 X10 Y10
G0 F3000 X97.702 Y97.878
M204 S1800
M205 X8 Y8
G1 F2400 X98.279 Y97.344 E3.08786
G1 X98.913 Y96.879 E3.12448
G1 X99.786 Y96.395 E3.17096
G1 X100.452 Y96.127 E3.20438
G1 X101.293 Y95.898 E3.24497
G1 X102.656 Y95.74 E3.30886
G1 X106.617 Y95.74 E3.4933
G1 X107.391 Y95.751 E3.52935
G1 X108.213 Y95.815 E3.56774
G1 X109.185 Y96.015 E3.61395
G1 X109.801 Y96.221 E3.64419
G1 X110.765 Y96.682 E3.69395
G1 X111.474 Y97.149 E3.73348
G1 X112.071 Y97.653 E3.76986
G1 X112.611 Y98.226 E3.80652
G1 X113.159 Y98.972 E3.84963
G1 X113.544 Y99.659 E3.8863
G1 X113.894 Y100.517 E3.92944
G1 X114.116 Y101.373 E3.97062
G1 X114.26 Y102.657 E4.03079
G1 X114.26 Y106.65 E4.21672
G1 X114.249 Y107.416 E4.25239
G1 X114.168 Y108.342 E4.29567
G1 X113.99 Y109.172 E4.3352
G1 X113.736 Y109.912 E4.37163
G1 X113.368 Y110.679 E4.41124
G1 X112.987 Y111.287 E4.44465
G1 X112.304 Y112.117 E4.4947
G1 X111.734 Y112.646 E4.53091
G1 X111.098 Y113.114 E4.56768
G1 X110.226 Y113.599 E4.61414
G1 X109.499 Y113.889 E4.65059
G1 X108.726 Y114.103 E4.68794
G1 X107.345 Y114.26 E4.75266
G1 X103.318 Y114.26 E4.94017
G1 X102.581 Y114.249 E4.97449
G1 X101.658 Y114.169 E5.01763
G1 X100.953 Y114.024 E5.05115
G1 X100.08 Y113.732 E5.09401
G1 X99.314 Y113.363 E5.1336
G1 X98.59 Y112.897 E5.1737
G1 X97.881 Y112.302 E5.21679
G1 X97.35 Y111.729 E5.25317
G1 X96.847 Y111.04 E5.29289
G1 X96.492 Y110.415 E5.32636
G1 X96.11 Y109.498 E5.37262
G1 X95.907 Y108.766 E5.40799
G1 X95.74 Y107.339 E5.47489
G1 X95.74 Y103.279 E5.66394
G1 X95.751 Y102.575 E5.69673
G1 X95.822 Y101.723 E5.73654
G1 X95.994 Y100.892 E5.77605
G1 X96.271 Y100.074 E5.81627
G1 X96.679 Y99.24 E5.8595
G1 X97.15 Y98.525 E5.89937
G1 X97.702 Y97.878 E5.93897
M204 S3000
M205 X10 Y10
G0 F3000 X98.084 Y98.287
M204 S1800
M205 X8 Y8
G1 F2400 X98.61 Y97.796 E5.97247
G1 X99.244 Y97.331 E6.00909
G1 X99.995 Y96.915 E6.04906
G1 X100.661 Y96.647 E6.08249
G1 X101.438 Y96.439 E6.11994
G1 X102.656 Y96.3 E6.17703
G1 X106.609 Y96.3 E6.3611
G1 X107.383 Y96.311 E6.39714
G1 X108.169 Y96.373 E6.43385
G1 X109.007 Y96.546 E6.4737
G1 X109.623 Y96.752 E6.50394
G1 X110.459 Y97.151 E6.54708
G1 X111.115 Y97.579 E6.58355
G1 X111.665 Y98.039 E6.61694
G1 X112.161 Y98.56 E6.65043
G1 X112.67 Y99.246 E6.69021
G1 X113.055 Y99.933 E6.72688
G1 X113.353 Y100.662 E6.76355
G1 X113.56 Y101.437 E6.8009
G1 X113.7 Y102.657 E6.85808
G1 X113.7 Y106.643 E7.04369
G1 X113.691 Y107.37 E7.07754
G1 X113.62 Y108.227 E7.11758
G1 X113.459 Y108.993 E7.15403
G1 X113.23 Y109.672 E7.1874
G1 X112.893 Y110.382 E7.22399
G1 X112.512 Y110.99 E7.2574
G1 X111.921 Y111.708 E7.30071
G1 X111.399 Y112.197 E7.33401
G1 X110.823 Y112.626 E7.36746
G1 X110.016 Y113.08 E7.41057
G1 X109.35 Y113.349 E7.44402
G1 X108.617 Y113.552 E7.47943
G1 X107.345 Y113.7 E7.53906
G1 X103.325 Y113.7 E7.72625
G1 X102.627 Y113.691 E7.75876
G1 X101.771 Y113.62 E7.79875
G1 X101.066 Y113.475 E7.83227
G1 X100.26 Y113.202 E7.87189
G1 X99.615 Y112.891 E7.90523
G1 X98.948 Y112.466 E7.94206
G1 X98.29 Y111.919 E7.9819
G1 X97.801 Y111.397 E8.01521
G1 X97.334 Y110.763 E8.05188
G1 X96.979 Y110.138 E8.08535
G1 X96.65 Y109.348 E8.12519
G1 X96.447 Y108.616 E8.16057
G1 X96.3 Y107.339 E8.22042
G1 X96.3 Y103.287 E8.4091
G1 X96.309 Y102.622 E8.44007
G1 X96.38 Y101.77 E8.47988
G1 X96.525 Y101.069 E8.51321
G1 X96.775 Y100.318 E8.55007
G1 X97.148 Y99.546 E8.58999
G1 X97.578 Y98.886 E8.62667
G1 X98.084 Y98.287 E8.66318
M204 S3000
M205 X10 Y10
G0 F3000 X98.469 Y98.694
M204 S1800
M205 X8 Y8
G1 F2400 X98.941 Y98.248 E8.69342
G1 X99.575 Y97.783 E8.73003
G1 X100.204 Y97.435 E8.7635
G1 X100.87 Y97.167 E8.79693
G1 X101.58 Y96.981 E8.83111
G1 X102.656 Y96.86 E8.88153
G1 X106.601 Y96.86 E9.06522
G1 X107.375 Y96.871 E9.10127
G1 X108.124 Y96.931 E9.13625
G1 X108.829 Y97.077 E9.16978
G1 X109.445 Y97.283 E9.20002
G1 X110.155 Y97.622 E9.23666
G1 X110.758 Y98.011 E9.27007
G1 X111.259 Y98.425 E9.30034
G1 X111.755 Y98.946 E9.33383
G1 X112.183 Y99.522 E9.36725
G1 X112.538 Y100.148 E9.40076
G1 X112.813 Y100.811 E9.43418
G1 X113.004 Y101.503 E9.46761
G1 X113.14 Y102.657 E9.52171
G1 X113.14 Y106.636 E9.70699
G1 X113.131 Y107.363 E9.74085
G1 X113.072 Y108.114 E9.77592
G1 X112.927 Y108.817 E9.80935
G1 X112.723 Y109.434 E9.83961
G1 X112.418 Y110.085 E9.87308
G1 X112.037 Y110.693 E9.90649
G1 X111.536 Y111.301 E9.94318
G1 X111.064 Y111.748 E9.97345
G1 X110.488 Y112.177 E10.00689
G1 X109.803 Y112.562 E10.04348
G1 X109.201 Y112.809 E10.07378
G1 X108.468 Y113.012 E10.1092
G1 X107.345 Y113.14 E10.16183
G1 X103.332 Y113.14 E10.34869
G1 X102.634 Y113.131 E10.38119
G1 X101.884 Y113.071 E10.41623
G1 X101.179 Y112.926 E10.44974
G1 X100.5 Y112.696 E10.48312
G1 X99.913 Y112.417 E10.51339
G1 X99.304 Y112.034 E10.54689
G1 X98.697 Y111.534 E10.58351
G1 X98.25 Y111.062 E10.61378
G1 X97.821 Y110.486 E10.64722
G1 X97.466 Y109.861 E10.68069
G1 X97.19 Y109.198 E10.71413
G1 X96.987 Y108.466 E10.7495
G1 X96.86 Y107.339 E10.80231
G1 X96.86 Y103.295 E10.99061
G1 X96.869 Y102.63 E11.02158
G1 X96.929 Y101.88 E11.05662
G1 X97.057 Y101.243 E11.08687
G1 X97.28 Y100.559 E11.12037
G1 X97.619 Y99.849 E11.15701
G1 X98.008 Y99.245 E11.19046
G1 X98.469 Y98.694 E11.22391
M204 S3000
M205 X10 Y10
G0 F3000 X98.854 Y99.101
M204 S1800
M205 X8 Y8
G1 F2400 X99.326 Y98.655 E11.25415
G1 X99.849 Y98.271 E11.28436
G1 X100.416 Y97.953 E11.31463
G1 X101.017 Y97.707 E11.34487
G1 X101.644 Y97.537 E11.37512
G1 X102.656 Y97.42 E11.42256
G1 X106.593 Y97.42 E11.60588
G1 X107.367 Y97.431 E11.64193
G1 X108.014 Y97.48 E11.67214
G1 X108.651 Y97.608 E11.70239
G1 X109.267 Y97.814 E11.73264
G1 X109.854 Y98.094 E11.76292
G1 X110.401 Y98.443 E11.79314
G1 X110.902 Y98.857 E11.8234
G1 X111.347 Y99.33 E11.85364
G1 X111.732 Y99.854 E11.88392
G1 X112.049 Y100.421 E11.91416
G1 X112.294 Y101.022 E11.94439
G1 X112.463 Y101.649 E11.97462
G1 X112.58 Y102.657 E12.02188
G1 X112.58 Y106.629 E12.20683
G1 X112.571 Y107.356 E12.24068
G1 X112.523 Y108.004 E12.27094
G1 X112.395 Y108.641 E12.30119
G1 X112.191 Y109.258 E12.33145
G1 X111.912 Y109.845 E12.36172
G1 X111.564 Y110.393 E12.39194
G1 X111.151 Y110.894 E12.42218
G1 X110.679 Y111.341 E12.45245
G1 X110.156 Y111.726 E12.48269
G1 X109.59 Y112.044 E12.51292
G1 X108.988 Y112.291 E12.54322
G1 X108.362 Y112.461 E12.57342
G1 X107.345 Y112.58 E12.6211
G1 X103.339 Y112.58 E12.80764
G1 X102.641 Y112.571 E12.84014
G1 X101.993 Y112.522 E12.8704
G1 X101.356 Y112.395 E12.90065
G1 X100.74 Y112.19 E12.93088
G1 X100.153 Y111.911 E12.96114
G1 X99.605 Y111.562 E12.99139
G1 X99.104 Y111.149 E13.02163
G1 X98.657 Y110.677 E13.0519
G1 X98.272 Y110.154 E13.08214
G1 X97.954 Y109.587 E13.11241
G1 X97.708 Y108.986 E13.14265
G1 X97.538 Y108.359 E13.1729
G1 X97.42 Y107.339 E13.22071
G1 X97.42 Y103.303 E13.40864
G1 X97.429 Y102.638 E13.43961
G1 X97.478 Y101.99 E13.46987
G1 X97.606 Y101.353 E13.50012
G1 X97.811 Y100.736 E13.5304
G1 X98.091 Y100.15 E13.56064
G1 X98.44 Y99.602 E13.59089
G1 X98.854 Y99.101 E13.62115
M204 S3000
M205 X10 Y10
G1 F2400 E7.62115
;MESH:PP113_power_button-Lichaam.stl
G0 F3000 X102.035 Y103.114
G0 X103.114 Y103.114
G0 X105.9 Y105.9
M204 S1800
M205 X8 Y8
;TYPE:WALL-INNER
G1 F2400 E13.62115
G1 F1500 X105.9 Y104.1 E13.70497
G1 X104.1 Y104.1 E13.78879
G1 X104.1 Y105.9 E13.8726
G1 X105.9 Y105.9 E13.95642
M204 S3000
M205 X10 Y10
G0 F3000 X106.46 Y106.46
M204 S1800
M205 X8 Y8
G1 F1500 X106.46 Y103.54 E14.09238
G1 X103.54 Y103.54 E14.22835
G1 X103.54 Y106.46 E14.36432
G1 X106.46 Y106.46 E14.50029
M204 S3000
M205 X10 Y10
G0 F3000 X107.02 Y107.02
M204 S1800
M205 X8 Y8
;TYPE:WALL-OUTER
G1 F1500 X107.02 Y102.98 E14.68841
G1 X102.98 Y102.98 E14.87653
G1 X102.98 Y107.02 E15.06464
G1 X107.02 Y107.02 E15.25276
M204 S3000
M205 X10 Y10
G0 F3000 X107.02 Y106.82
G0 X106.43 Y106.43
G0 X105.32 Y105.32
M204 S1800
M205 X8 Y8
;TYPE:SKIN
G1 F1050 X104.68 Y105.32 E15.28682
G1 X104.68 Y104.68 E15.32088
G1 X105.32 Y104.68 E15.35494
G1 X105.32 Y105.32 E15.389
M204 S3000
M205 X10 Y10
G1 F2400 E9.389
;MESH:NONMESH
G0 F600 X105.32 Y105.32 Z0.4
G0 F3000 X103.114 Y103.114
G0 X102.035 Y103.114
G0 X98.854 Y99.101
;TIME_ELAPSED:14.519439
;LAYER:1
;note -- min layer time used
M106 S255
M204 S1800
M205 X8 Y8
;TYPE:SKIRT
G1 F2400 E15.389
G1 F1460.5 X99.326 Y98.655 E15.4106
G1 X99.849 Y98.271 E15.43218
G1 X100.416 Y97.953 E15.4538
G1 X101.017 Y97.707 E15.4754
G1 X101.644 Y97.537 E15.497
G1 X102.656 Y97.42 E15.53089
G1 X106.593 Y97.42 E15.66183
G1 X107.367 Y97.431 E15.68758
G1 X108.014 Y97.48 E15.70916
G1 X108.651 Y97.608 E15.73077
G1 X109.267 Y97.814 E15.75237
G1 X109.854 Y98.094 E15.774
G1 X110.401 Y98.443 E15.79559
G1 X110.902 Y98.857 E15.8172
G1 X111.347 Y99.33 E15.8388
G1 X111.732 Y99.854 E15.86043
G1 X112.049 Y100.421 E15.88203
G1 X112.294 Y101.022 E15.90362
G1 X112.463 Y101.649 E15.92522
G1 X112.58 Y102.657 E15.95897
G1 X112.58 Y106.629 E16.09108
G1 X112.571 Y107.356 E16.11526
G1 X112.523 Y108.004 E16.13687
G1 X112.395 Y108.641 E16.15848
G1 X112.191 Y109.258 E16.1801
G1 X111.912 Y109.845 E16.20171
G1 X111.564 Y110.393 E16.22331
G1 X111.151 Y110.894 E16.2449
G1 X110.679 Y111.341 E16.26652
G1 X110.156 Y111.726 E16.28812
G1 X109.59 Y112.044 E16.30972
G1 X108.988 Y112.291 E16.33136
G1 X108.362 Y112.461 E16.35293
G1 X107.345 Y112.58 E16.38699
G1 X103.339 Y112.58 E16.52023
G1 X102.641 Y112.571 E16.54345
G1 X101.993 Y112.522 E16.56506
G1 X101.356 Y112.395 E16.58666
G1 X100.74 Y112.19 E16.60826
G1 X100.153 Y111.911 E16.62987
G1 X99.605 Y111.562 E16.65148
G1 X99.104 Y111.149 E16.67308
G1 X98.657 Y110.677 E16.6947
G1 X98.272 Y110.154 E16.7163
G1 X97.954 Y109.587 E16.73792
G1 X97.708 Y108.986 E16.75952
G1 X97.538 Y108.359 E16.78113
G1 X97.42 Y107.339 E16.81528
G1 X97.42 Y103.303 E16.94952
G1 X97.429 Y102.638 E16.97164
G1 X97.478 Y101.99 E16.99325
G1 X97.606 Y101.353 E17.01486
G1 X97.811 Y100.736 E17.03649
G1 X98.091 Y100.15 E17.05809
G1 X98.44 Y99.602 E17.0797
G1 X98.854 Y99.101 E17.10131
M204 S3000
M205 X10 Y10
G1 F2400 E11.10131
;MESH:PP113_power_button-Lichaam.stl
G0 F4500 X102.035 Y103.114
G0 X103.114 Y103.114
G0 X106.3 Y106.3
M204 S1800
M205 X8 Y8
;TYPE:WALL-INNER
G1 F2400 E17.10131
G1 F1427.9 X106.3 Y103.7 E17.18779
G1 X103.7 Y103.7 E17.27427
G1 X103.7 Y106.3 E17.36074
G1 X106.3 Y106.3 E17.44722
M204 S3000
M205 X10 Y10
G0 F4500 X106.7 Y106.7
M204 S1800
M205 X8 Y8
G1 F1427.9 X106.7 Y103.3 E17.5603
G1 X103.3 Y103.3 E17.67339
G1 X103.3 Y106.7 E17.78647
G1 X106.7 Y106.7 E17.89956
M204 S3000
M205 X10 Y10
G0 F4500 X107.1 Y107.1
M204 S1800
M205 X8 Y8
;TYPE:WALL-OUTER
G1 F1427.9 X107.1 Y102.9 E18.03925
G1 X102.9 Y102.9 E18.17894
G1 X102.9 Y107.1 E18.31863
G1 X107.1 Y107.1 E18.45833
M204 S3000
M205 X10 Y10
G0 F4500 X107.1 Y106.9
G0 X106.43 Y106.43
G0 X105.92 Y105.92
M204 S1800
M205 X8 Y8
;TYPE:SKIN
G1 F1200 X104.08 Y105.92 E18.51952
G1 X104.08 Y104.08 E18.58072
G1 X105.92 Y104.08 E18.64192
G1 X105.92 Y105.92 E18.70312
M204 S3000
M205 X10 Y10
G0 F4500 X105.72 Y105.281
M204 S1800
M205 X8 Y8
G1 F1200 X105.28 Y105.72 E18.72379
M204 S3000
M205 X10 Y10
G0 F4500 X104.715 Y105.72
M204 S1800
M205 X8 Y8
G1 F1200 X105.72 Y104.715 E18.77107
M204 S3000
M205 X10 Y10
G0 F4500 X105.589 Y104.28
M204 S1800
M205 X8 Y8
G1 F1200 X104.28 Y105.589 E18.83264
M204 S3000
M205 X10 Y10
G0 F4500 X104.28 Y105.024
M204 S1800
M205 X8 Y8
G1 F1200 X105.024 Y104.28 E18.86763
M204 S3000
M205 X10 Y10
G0 F4500 X104.458 Y104.28
M204 S1800
M205 X8 Y8
G1 F1200 X104.28 Y104.458 E18.87601
M204 S3000
M205 X10 Y10
G1 F2400 E12.87601
;MESH:NONMESH
G0 F600 X104.28 Y104.458 Z0.6
G0 F4500 X103.114 Y103.114
G0 X102.035 Y103.114
G0 X98.854 Y99.101
;TIME_ELAPSED:20.434958
;LAYER:2
;note -- min layer time used
M204 S1800
M205 X8 Y8
;TYPE:SKIRT
G1 F2400 E18.87601
G1 F1386 X99.326 Y98.655 E18.8976
G1 X99.849 Y98.271 E18.91918
G1 X100.416 Y97.953 E18.94081
G1 X101.017 Y97.707 E18.96241
G1 X101.644 Y97.537 E18.98401
G1 X102.656 Y97.42 E19.0179
G1 X106.593 Y97.42 E19.14884
G1 X107.367 Y97.431 E19.17459
G1 X108.014 Y97.48 E19.19617
G1 X108.651 Y97.608 E19.21778
G1 X109.267 Y97.814 E19.23938
G1 X109.854 Y98.094 E19.26101
G1 X110.401 Y98.443 E19.28259
G1 X110.902 Y98.857 E19.30421
G1 X111.347 Y99.33 E19.32581
G1 X111.732 Y99.854 E19.34744
G1 X112.049 Y100.421 E19.36904
G1 X112.294 Y101.022 E19.39063
G1 X112.463 Y101.649 E19.41223
G1 X112.58 Y102.657 E19.44598
G1 X112.58 Y106.629 E19.57809
G1 X112.571 Y107.356 E19.60227
G1 X112.523 Y108.004 E19.62388
G1 X112.395 Y108.641 E19.64549
G1 X112.191 Y109.258 E19.66711
G1 X111.912 Y109.845 E19.68872
G1 X111.564 Y110.393 E19.71031
G1 X111.151 Y110.894 E19.73191
G1 X110.679 Y111.341 E19.75353
G1 X110.156 Y111.726 E19.77513
G1 X109.59 Y112.044 E19.79672
G1 X108.988 Y112.291 E19.81837
G1 X108.362 Y112.461 E19.83994
G1 X107.345 Y112.58 E19.874
G1 X103.339 Y112.58 E20.00724
G1 X102.641 Y112.571 E20.03045
G1 X101.993 Y112.522 E20.05207
G1 X101.356 Y112.395 E20.07367
G1 X100.74 Y112.19 E20.09527
G1 X100.153 Y111.911 E20.11688
G1 X99.605 Y111.562 E20.13849
G1 X99.104 Y111.149 E20.16009
G1 X98.657 Y110.677 E20.18171
G1 X98.272 Y110.154 E20.20331
G1 X97.954 Y109.587 E20.22493
G1 X97.708 Y108.986 E20.24653
