;FLAVOR:Marlin
;TIME:22141
;Filament used: 19.0774m
;Layer height: 0.2
;MINX:41.6
;MINY:47.6
;MINZ:0.2
;MAXX:168.4
;MAXY:162.4
;MAXZ:23
;TARGET_MACHINE.NAME:Anycubic i3 Mega
;Generated with Cura_SteamEngine 5.8.1
M140 S60
M105
M190 S60
M104 S200
M105
M109 S200
M82 ;absolute extrusion mode
G21 ;metric values
G90 ;absolute positioning
M82 ;set extruder to absolute mode
M107 ;start with the fan off
G28 X0 Y0 ;move X/Y to min endstops
G28 Z0 ;move Z to min endstops
G1 Z15.0 F100 ;move the platform down 15mm
G92 E0 ;zero the extruded length
G1 F200 E3 ;extrude 3mm of feed stock
G92 E0 ;zero the extruded length again
G1 F100
G0 Y20 F100
M117 Printing...
G5
G92 E0
G92 E0
G1 F2400 E-6
;LAYER_COUNT:115
;LAYER:0
M107
M204 S3000
M205 X10 Y10
G1 F600 Z0.275
G0 F3000 X43.91 Y49.096 Z0.275
M204 S1800
M205 X8 Y8
;TYPE:SKIRT
G1 F600 Z0.2
G1 F2400 E0
G1 X44.544 Y48.631 E0.03661
G1 X45.295 Y48.215 E0.07659
G1 X45.961 Y47.947 E0.11002
G1 X46.738 Y47.739 E0.14747
G1 X47.956 Y47.6 E0.20455
G1 X161.309 Y47.6 E5.48274
G1 X162.083 Y47.611 E5.51879
G1 X162.869 Y47.673 E5.5555
G1 X163.707 Y47.846 E5.59534
G1 X164.323 Y48.052 E5.62559
G1 X165.159 Y48.451 E5.66872
G1 X165.815 Y48.879 E5.7052
G1 X166.365 Y49.339 E5.73858
G1 X166.861 Y49.86 E5.77208
G1 X167.37 Y50.546 E5.81185
G1 X167.755 Y51.233 E5.84853
G1 X168.053 Y51.962 E5.8852
G1 X168.26 Y52.737 E5.92255
G1 X168.4 Y53.957 E5.97973
G1 X168.4 Y155.343 E10.70069
G1 X168.391 Y156.07 E10.73454
G1 X168.32 Y156.927 E10.77458
G1 X168.159 Y157.693 E10.81103
G1 X167.93 Y158.372 E10.8444
G1 X167.593 Y159.082 E10.88099
G1 X167.212 Y159.69 E10.9144
G1 X166.621 Y160.408 E10.95771
G1 X166.099 Y160.897 E10.99101
G1 X165.523 Y161.326 E11.02446
G1 X164.716 Y161.78 E11.06757
G1 X164.05 Y162.049 E11.10102
G1 X163.317 Y162.252 E11.13643
G1 X162.045 Y162.4 E11.19606
G1 X48.625 Y162.4 E16.47737
G1 X47.927 Y162.391 E16.50988
G1 X47.071 Y162.32 E16.54987
G1 X46.366 Y162.175 E16.58339
G1 X45.56 Y161.902 E16.62301
G1 X44.915 Y161.591 E16.65636
G1 X44.248 Y161.166 E16.69318
G1 X43.59 Y160.619 E16.73303
G1 X43.101 Y160.097 E16.76633
G1 X42.634 Y159.463 E16.803
G1 X42.279 Y158.838 E16.83647
G1 X41.95 Y158.048 E16.87632
G1 X41.747 Y157.316 E16.91169
G1 X41.6 Y156.039 E16.97154
G1 X41.6 Y54.587 E21.69557
G1 X41.609 Y53.922 E21.72654
G1 X41.68 Y53.07 E21.76635
G1 X41.825 Y52.369 E21.79968
G1 X42.075 Y51.618 E21.83654
G1 X42.448 Y50.846 E21.87646
G1 X42.878 Y50.186 E21.91314
G1 X43.384 Y49.587 E21.94965
G1 X43.91 Y49.096 E21.98316
M204 S3000
M205 X10 Y10
G0 F3000 X44.241 Y49.548
M204 S1800
M205 X8 Y8
G1 F2400 X44.875 Y49.083 E22.01977
G1 X45.504 Y48.735 E22.05324
G1 X46.17 Y48.467 E22.08667
G1 X46.88 Y48.281 E22.12085
G1 X47.956 Y48.16 E22.17127
G1 X161.301 Y48.16 E27.44909
G1 X162.075 Y48.171 E27.48513
G1 X162.824 Y48.231 E27.52012
G1 X163.529 Y48.377 E27.55364
G1 X164.145 Y48.583 E27.58389
G1 X164.855 Y48.922 E27.62052
G1 X165.458 Y49.311 E27.65394
G1 X165.959 Y49.725 E27.6842
G1 X166.455 Y50.246 E27.7177
G1 X166.883 Y50.822 E27.75111
G1 X167.238 Y51.448 E27.78462
G1 X167.513 Y52.111 E27.81804
G1 X167.704 Y52.803 E27.85147
G1 X167.84 Y53.957 E27.90558
G1 X167.84 Y155.336 E32.62621
G1 X167.831 Y156.063 E32.66006
G1 X167.772 Y156.814 E32.69514
G1 X167.627 Y157.517 E32.72856
G1 X167.423 Y158.134 E32.75882
G1 X167.118 Y158.785 E32.7923
G1 X166.737 Y159.393 E32.82571
G1 X166.236 Y160.001 E32.86239
G1 X165.764 Y160.448 E32.89266
G1 X165.188 Y160.877 E32.92611
G1 X164.503 Y161.262 E32.9627
G1 X163.901 Y161.509 E32.99299
G1 X163.168 Y161.712 E33.02841
G1 X162.045 Y161.84 E33.08104
G1 X48.632 Y161.84 E38.36203
G1 X47.934 Y161.831 E38.39453
G1 X47.184 Y161.771 E38.42956
G1 X46.479 Y161.626 E38.46308
G1 X45.8 Y161.396 E38.49646
G1 X45.213 Y161.117 E38.52672
G1 X44.604 Y160.734 E38.56022
G1 X43.997 Y160.234 E38.59684
G1 X43.55 Y159.762 E38.62711
G1 X43.121 Y159.186 E38.66056
G1 X42.766 Y158.561 E38.69403
G1 X42.49 Y157.898 E38.72747
G1 X42.287 Y157.166 E38.76284
G1 X42.16 Y156.039 E38.81565
G1 X42.16 Y54.595 E43.5393
G1 X42.169 Y53.93 E43.57027
G1 X42.229 Y53.18 E43.60531
G1 X42.357 Y52.543 E43.63556
G1 X42.58 Y51.859 E43.66906
G1 X42.919 Y51.149 E43.7057
G1 X43.308 Y50.545 E43.73915
G1 X43.769 Y49.994 E43.7726
G1 X44.241 Y49.548 E43.80284
M204 S3000
M205 X10 Y10
G0 F3000 X44.626 Y49.955
M204 S1800
M205 X8 Y8
G1 F2400 X45.149 Y49.571 E43.83305
G1 X45.716 Y49.253 E43.86332
G1 X46.317 Y49.007 E43.89356
G1 X46.944 Y48.837 E43.92381
G1 X47.956 Y48.72 E43.97125
G1 X161.293 Y48.72 E49.24869
G1 X162.067 Y48.731 E49.28474
G1 X162.714 Y48.78 E49.31495
G1 X163.351 Y48.908 E49.34521
G1 X163.967 Y49.114 E49.37545
G1 X164.554 Y49.394 E49.40574
G1 X165.101 Y49.743 E49.43595
G1 X165.602 Y50.157 E49.46621
G1 X166.047 Y50.63 E49.49645
G1 X166.432 Y51.154 E49.52673
G1 X166.749 Y51.721 E49.55698
G1 X166.994 Y52.322 E49.5872
G1 X167.163 Y52.949 E49.61744
G1 X167.28 Y53.957 E49.66469
G1 X167.28 Y155.329 E54.38499
G1 X167.271 Y156.056 E54.41885
G1 X167.223 Y156.704 E54.4491
G1 X167.095 Y157.341 E54.47936
G1 X166.891 Y157.958 E54.50962
G1 X166.612 Y158.545 E54.53988
G1 X166.264 Y159.093 E54.57011
G1 X165.851 Y159.594 E54.60034
G1 X165.379 Y160.041 E54.63061
G1 X164.856 Y160.426 E54.66085
G1 X164.29 Y160.744 E54.69108
G1 X163.688 Y160.991 E54.72138
G1 X163.062 Y161.161 E54.75159
G1 X162.045 Y161.28 E54.79927
G1 X48.639 Y161.28 E60.07992
G1 X47.941 Y161.271 E60.11243
G1 X47.293 Y161.222 E60.14269
G1 X46.656 Y161.095 E60.17293
G1 X46.04 Y160.89 E60.20316
G1 X45.453 Y160.611 E60.23343
G1 X44.905 Y160.262 E60.26368
G1 X44.404 Y159.849 E60.29391
G1 X43.957 Y159.377 E60.32418
G1 X43.572 Y158.854 E60.35442
G1 X43.254 Y158.287 E60.38469
G1 X43.008 Y157.686 E60.41493
G1 X42.838 Y157.059 E60.44518
G1 X42.72 Y156.039 E60.49299
G1 X42.72 Y54.603 E65.21628
G1 X42.729 Y53.938 E65.24725
G1 X42.778 Y53.29 E65.27751
G1 X42.906 Y52.653 E65.30776
G1 X43.111 Y52.036 E65.33804
G1 X43.391 Y51.45 E65.36828
G1 X43.74 Y50.902 E65.39853
G1 X44.154 Y50.401 E65.42879
G1 X44.626 Y49.955 E65.45903
M204 S3000
M205 X10 Y10
G1 F2400 E59.45903
;MESH:PP113_case_bottom-Lichaam.stl
G0 F3000 X48.414 Y53.335
G0 X48.414 Y54.414
G0 X160.6 Y154.6
M204 S1800
M205 X8 Y8
;TYPE:WALL-INNER
G1 F2400 E65.45903
G1 F1500 X160.6 Y55.4 E70.0782
G1 X49.4 Y55.4 E75.25614
G1 X49.4 Y154.6 E79.8753
G1 X160.6 Y154.6 E85.05324
M204 S3000
M205 X10 Y10
G0 F3000 X161.16 Y155.16
M204 S1800
M205 X8 Y8
G1 F1500 X161.16 Y54.84 E89.72456
G1 X48.84 Y54.84 E94.95465
G1 X48.84 Y155.16 E99.62597
G1 X161.16 Y155.16 E104.85606
M204 S3000
M205 X10 Y10
G0 F3000 X161.72 Y155.72
M204 S1800
M205 X8 Y8
;TYPE:WALL-OUTER
G1 F1500 X161.72 Y54.28 E109.57953
G1 X48.28 Y54.28 E114.86177
G1 X48.28 Y155.72 E119.58524
G1 X161.72 Y155.72 E124.86749
M204 S3000
M205 X10 Y10
G0 F3000 X161.72 Y155.52
G0 X161.13 Y155.13
G0 X160.06 Y154.06
M204 S1800
M205 X8 Y8
;TYPE:SKIN
G1 F1200 X49.94 Y154.06 E129.99513
G1 X49.94 Y55.94 E134.56401
G1 X160.06 Y55.94 E139.69166
G1 X160.06 Y154.06 E144.26054
M204 S3000
M205 X10 Y10
G0 F3000 X159.175 Y56.22
M204 S1800
M205 X8 Y8
G1 F1200 X159.78 Y56.825 E144.30038
M204 S3000
M205 X10 Y10
G0 F3000 X159.78 Y57.617
M204 S1800
M205 X8 Y8
G1 F1200 X158.383 Y56.22 E144.39237
M204 S3000
M205 X10 Y10
G0 F3000 X157.591 Y56.22
M204 S1800
M205 X8 Y8
G1 F1200 X159.78 Y58.409 E144.53652
M204 S3000
M205 X10 Y10
G0 F3000 X159.78 Y59.201
M204 S1800
M205 X8 Y8
G1 F1200 X156.799 Y56.22 E144.73283
M204 S3000
M205 X10 Y10
G0 F3000 X156.007 Y56.22
M204 S1800
M205 X8 Y8
G1 F1200 X159.78 Y59.993 E144.98129
M204 S3000
M205 X10 Y10
G0 F3000 X159.78 Y60.785
M204 S1800
M205 X8 Y8
G1 F1200 X155.215 Y56.22 E145.2819
M204 S3000
M205 X10 Y10
G0 F3000 X154.423 Y56.22
M204 S1800
M205 X8 Y8
G1 F1200 X159.78 Y61.577 E145.63467
M204 S3000
M205 X10 Y10
G0 F3000 X159.78 Y62.369
M204 S1800
M205 X8 Y8
G1 F1200 X153.631 Y56.22 E146.03959
M204 S3000
M205 X10 Y10
G0 F3000 X152.839 Y56.22
M204 S1800
M205 X8 Y8
G1 F1200 X159.78 Y63.161 E146.49667
M204 S3000
M205 X10 Y10
G0 F3000 X159.78 Y63.953
M204 S1800
M205 X8 Y8
G1 F1200 X152.047 Y56.22 E147.0059
M204 S3000
M205 X10 Y10
G0 F3000 X151.255 Y56.22
M204 S1800
M205 X8 Y8
G1 F1200 X159.78 Y64.745 E147.56728
M204 S3000
M205 X10 Y10
G0 F3000 X159.78 Y65.537
M204 S1800
M205 X8 Y8
G1 F1200 X150.463 Y56.22 E148.18082
M204 S3000
M205 X10 Y10
G0 F3000 X149.671 Y56.22
M204 S1800
M205 X8 Y8
G1 F1200 X159.78 Y66.329 E148.84652
M204 S3000
M205 X10 Y10
G0 F3000 X159.78 Y67.121
M204 S1800
M205 X8 Y8
G1 F1200 X148.879 Y56.22 E149.56437
M204 S3000
M205 X10 Y10
G0 F3000 X148.087 Y56.22
M204 S1800
M205 X8 Y8
G1 F1200 X159.78 Y67.913 E150.33437
M204 S3000
M205 X10 Y10
G0 F3000 X159.78 Y68.705
M204 S1800
M205 X8 Y8
G1 F1200 X147.295 Y56.22 E151.15653
M204 S3000
M205 X10 Y10
G0 F3000 X146.503 Y56.22
M204 S1800
M205 X8 Y8
G1 F1200 X159.78 Y69.497 E152.03084
M204 S3000
M205 X10 Y10
G0 F3000 X159.78 Y70.289
M204 S1800
M205 X8 Y8
G1 F1200 X145.711 Y56.22 E152.95731
M204 S3000
M205 X10 Y10
G0 F3000 X144.919 Y56.22
M204 S1800
M205 X8 Y8
G1 F1200 X159.78 Y71.08 E153.9359
M204 S3000
M205 X10 Y10
G0 F3000 X159.78 Y71.872
M204 S1800
M205 X8 Y8
G1 F1200 X144.127 Y56.22 E154.96664
M204 S3000
M205 X10 Y10
G0 F3000 X143.335 Y56.22
M204 S1800
M205 X8 Y8
G1 F1200 X159.78 Y72.664 E156.04954
M204 S3000
M205 X10 Y10
G0 F3000 X159.78 Y73.456
M204 S1800
M205 X8 Y8
G1 F1200 X142.544 Y56.22 E157.18456
M204 S3000
M205 X10 Y10
G0 F3000 X141.752 Y56.22
M204 S1800
M205 X8 Y8
G1 F1200 X159.78 Y74.248 E158.37174
M204 S3000
M205 X10 Y10
G0 F3000 X159.78 Y75.04
M204 S1800
M205 X8 Y8
G1 F1200 X140.96 Y56.22 E159.61107
M204 S3000
M205 X10 Y10
G0 F3000 X140.168 Y56.22
M204 S1800
M205 X8 Y8
G1 F1200 X159.78 Y75.832 E160.90255
M204 S3000
M205 X10 Y10
G0 F3000 X159.78 Y76.624
M204 S1800
M205 X8 Y8
G1 F1200 X139.376 Y56.22 E162.24619
M204 S3000
M205 X10 Y10
G0 F3000 X138.584 Y56.22
M204 S1800
M205 X8 Y8
G1 F1200 X159.78 Y77.416 E163.64198
M204 S3000
M205 X10 Y10
G0 F3000 X159.78 Y78.208
M204 S1800
M205 X8 Y8
G1 F1200 X137.792 Y56.22 E165.08993
M204 S3000
M205 X10 Y10
G0 F3000 X137 Y56.22
M204 S1800
M205 X8 Y8
G1 F1200 X159.78 Y79 E166.59003
M204 S3000
M205 X10 Y10
G0 F3000 X159.78 Y79.792
M204 S1800
M205 X8 Y8
G1 F1200 X136.208 Y56.22 E168.14229
M204 S3000
M205 X10 Y10
G0 F3000 X135.416 Y56.22
M204 S1800
M205 X8 Y8
G1 F1200 X159.78 Y80.584 E169.7467
M204 S3000
M205 X10 Y10
G0 F3000 X159.78 Y81.376
M204 S1800
M205 X8 Y8
G1 F1200 X134.624 Y56.22 E171.40326
M204 S3000
M205 X10 Y10
G0 F3000 X133.832 Y56.22
M204 S1800
M205 X8 Y8
G1 F1200 X159.78 Y82.168 E173.11198
M204 S3000
M205 X10 Y10
G0 F3000 X159.78 Y82.96
M204 S1800
M205 X8 Y8
G1 F1200 X133.04 Y56.22 E174.87286
M204 S3000
M205 X10 Y10
G0 F3000 X132.248 Y56.22
M204 S1800
M205 X8 Y8
G1 F1200 X159.78 Y83.752 E176.68589
M204 S3000
M205 X10 Y10
G0 F3000 X159.78 Y84.544
M204 S1800
M205 X8 Y8
G1 F1200 X131.456 Y56.22 E178.55107
M204 S3000
M205 X10 Y10
G0 F3000 X130.664 Y56.22
M204 S1800
M205 X8 Y8
G1 F1200 X159.78 Y85.336 E180.46841
M204 S3000
M205 X10 Y10
G0 F3000 X159.78 Y86.128
M204 S1800
M205 X8 Y8
G1 F1200 X129.872 Y56.22 E182.4379
M204 S3000
M205 X10 Y10
G0 F3000 X129.08 Y56.22
M204 S1800
M205 X8 Y8
G1 F1200 X159.78 Y86.92 E184.45955
M204 S3000
M205 X10 Y10
G0 F3000 X159.78 Y87.712
M204 S1800
M205 X8 Y8
G1 F1200 X128.288 Y56.22 E186.53335
M204 S3000
M205 X10 Y10
G0 F3000 X127.496 Y56.22
M204 S1800
M205 X8 Y8
G1 F1200 X159.78 Y88.504 E188.65931
M204 S3000
M205 X10 Y10
G0 F3000 X159.78 Y89.296
M204 S1800
M205 X8 Y8
G1 F1200 X126.704 Y56.22 E190.83742
M204 S3000
M205 X10 Y10
G0 F3000 X125.912 Y56.22
M204 S1800
M205 X8 Y8
G1 F1200 X159.78 Y90.088 E193.06769
M204 S3000
M205 X10 Y10
G0 F3000 X159.78 Y90.879
M204 S1800
M205 X8 Y8
G1 F1200 X125.12 Y56.22 E195.35007
M204 S3000
M205 X10 Y10
G0 F3000 X124.328 Y56.22
M204 S1800
M205 X8 Y8
G1 F1200 X159.78 Y91.671 E197.68461
M204 S3000
M205 X10 Y10
G0 F3000 X159.78 Y92.463
M204 S1800
M205 X8 Y8
G1 F1200 X123.537 Y56.22 E200.07128
M204 S3000
M205 X10 Y10
G0 F3000 X122.745 Y56.22
M204 S1800
M205 X8 Y8
G1 F1200 X159.78 Y93.255 E202.5101
M204 S3000
M205 X10 Y10
G0 F3000 X159.78 Y94.047
M204 S1800
M205 X8 Y8
G1 F1200 X121.953 Y56.22 E205.00107
M204 S3000
M205 X10 Y10
G0 F3000 X121.161 Y56.22
M204 S1800
M205 X8 Y8
G1 F1200 X159.78 Y94.839 E207.5442
M204 S3000
M205 X10 Y10
G0 F3000 X159.78 Y95.631
M204 S1800
M205 X8 Y8
G1 F1200 X120.369 Y56.22 E210.13948
M204 S3000
M205 X10 Y10
G0 F3000 X119.577 Y56.22
M204 S1800
M205 X8 Y8
G1 F1200 X159.78 Y96.423 E212.78691
M204 S3000
M205 X10 Y10
G0 F3000 X159.78 Y97.215
M204 S1800
M205 X8 Y8
G1 F1200 X118.785 Y56.22 E215.4865
M204 S3000
M205 X10 Y10
G0 F3000 X117.993 Y56.22
M204 S1800
M205 X8 Y8
G1 F1200 X159.78 Y98.007 E218.23825
M204 S3000
M205 X10 Y10
G0 F3000 X159.78 Y98.799
M204 S1800
M205 X8 Y8
G1 F1200 X117.201 Y56.22 E221.04215
M204 S3000
M205 X10 Y10
G0 F3000 X116.409 Y56.22
M204 S1800
M205 X8 Y8
G1 F1200 X159.78 Y99.591 E223.8982
M204 S3000
M205 X10 Y10
G0 F3000 X159.78 Y100.383
M204 S1800
M205 X8 Y8
G1 F1200 X115.617 Y56.22 E226.80641
M204 S3000
M205 X10 Y10
G0 F3000 X114.825 Y56.22
M204 S1800
M205 X8 Y8
G1 F1200 X159.78 Y101.175 E229.76678
M204 S3000
M205 X10 Y10
G0 F3000 X159.78 Y101.967
M204 S1800
M205 X8 Y8
G1 F1200 X114.033 Y56.22 E232.77929
M204 S3000
M205 X10 Y10
G0 F3000 X113.241 Y56.22
M204 S1800
M205 X8 Y8
G1 F1200 X159.78 Y102.759 E235.84397
M204 S3000
M205 X10 Y10
G0 F3000 X159.78 Y103.551
M204 S1800
M205 X8 Y8
G1 F1200 X112.449 Y56.22 E238.96079
M204 S3000
M205 X10 Y10
G0 F3000 X111.657 Y56.22
M204 S1800
M205 X8 Y8
G1 F1200 X159.78 Y104.343 E242.12978
M204 S3000
M205 X10 Y10
G0 F3000 X159.78 Y105.135
M204 S1800
M205 X8 Y8
G1 F1200 X110.865 Y56.22 E245.35091
M204 S3000
M205 X10 Y10
G0 F3000 X110.073 Y56.22
M204 S1800
M205 X8 Y8
G1 F1200 X159.78 Y105.927 E248.6242
M204 S3000
M205 X10 Y10
G0 F3000 X159.78 Y106.719
M204 S1800
M205 X8 Y8
G1 F1200 X109.281 Y56.22 E251.94965
M204 S3000
M205 X10 Y10
G0 F3000 X108.489 Y56.22
M204 S1800
M205 X8 Y8
G1 F1200 X159.78 Y107.511 E255.32725
M204 S3000
M205 X10 Y10
G0 F3000 X159.78 Y108.303
M204 S1800
M205 X8 Y8
G1 F1200 X107.697 Y56.22 E258.757
M204 S3000
M205 X10 Y10
G0 F3000 X106.905 Y56.22
M204 S1800
M205 X8 Y8
G1 F1200 X159.78 Y109.095 E262.23891
M204 S3000
M205 X10 Y10
G0 F3000 X159.78 Y109.887
M204 S1800
M205 X8 Y8
G1 F1200 X106.113 Y56.22 E265.77298
M204 S3000
M205 X10 Y10
G0 F3000 X105.321 Y56.22
M204 S1800
M205 X8 Y8
G1 F1200 X159.78 Y110.678 E269.35916
M204 S3000
M205 X10 Y10
G0 F3000 X159.78 Y111.47
M204 S1800
M205 X8 Y8
G1 F1200 X104.529 Y56.22 E272.9975
M204 S3000
M205 X10 Y10
G0 F3000 X103.738 Y56.22
M204 S1800
M205 X8 Y8
G1 F1200 X159.78 Y112.262 E276.68796
M204 S3000
M205 X10 Y10
G0 F3000 X159.78 Y113.054
M204 S1800
M205 X8 Y8
G1 F1200 X102.946 Y56.22 E280.43058
M204 S3000
M205 X10 Y10
G0 F3000 X102.154 Y56.22
M204 S1800
M205 X8 Y8
G1 F1200 X159.78 Y113.846 E284.22535
M204 S3000
M205 X10 Y10
G0 F3000 X159.78 Y114.638
M204 S1800
M205 X8 Y8
G1 F1200 X101.362 Y56.22 E288.07227
M204 S3000
M205 X10 Y10
G0 F3000 X100.57 Y56.22
M204 S1800
M205 X8 Y8
G1 F1200 X159.78 Y115.43 E291.97135
M204 S3000
M205 X10 Y10
G0 F3000 X159.78 Y116.222
M204 S1800
M205 X8 Y8
G1 F1200 X99.778 Y56.22 E295.92259
M204 S3000
M205 X10 Y10
G0 F3000 X98.986 Y56.22
M204 S1800
M205 X8 Y8
G1 F1200 X159.78 Y117.014 E299.92598
M204 S3000
M205 X10 Y10
G0 F3000 X159.78 Y117.806
M204 S1800
M205 X8 Y8
G1 F1200 X98.194 Y56.22 E303.98152
M204 S3000
M205 X10 Y10
