;FLAVOR:Marlin
;TIME:5554
;Filament used: 4.09863m
;Layer height: 0.2
;MINX:44.6
;MINY:79.6
;MINZ:0.2
;MAXX:165.4
;MAXY:130.4
;MAXZ:3
;TARGET_MACHINE.NAME:Anycubic i3 Mega
;Generated with Cura_SteamEngine 5.8.1
M140 S60
M105
M190 S60
M104 S200
M105
M109 S200
M82 ;absolute extrusion mode
G21 ;metric values
G90 ;absolute positioning
M82 ;set extruder to absolute mode
M107 ;start with the fan off
G28 X0 Y0 ;move X/Y to min endstops
G28 Z0 ;move Z to min endstops
G1 Z15.0 F100 ;move the platform down 15mm
G92 E0 ;zero the extruded length
G1 F200 E3 ;extrude 3mm of feed stock
G92 E0 ;zero the extruded length again
G1 F100
G0 Y20 F100
M117 Printing...
G5
G92 E0
G92 E0
G1 F2400 E-6
;LAYER_COUNT:15
;LAYER:0
M107
M204 S3000
M205 X10 Y10
G1 F600 Z0.275
G0 F3000 X47.544 Y80.631 Z0.275
M204 S1800
M205 X8 Y8
;TYPE:SKIRT
G1 F600 Z0.2
G1 F2400 E0
G1 X48.295 Y80.215 E0.03998
G1 X48.961 Y79.947 E0.0734
G1 X49.738 Y79.739 E0.11086
G1 X50.956 Y79.6 E0.16794
G1 X158.309 Y79.6 E5.16675
G1 X159.083 Y79.611 E5.20279
G1 X159.869 Y79.673 E5.23951
G1 X160.707 Y79.846 E5.27935
G1 X161.323 Y80.052 E5.30959
G1 X162.159 Y80.451 E5.35273
G1 X162.815 Y80.879 E5.3892
G1 X163.365 Y81.339 E5.42259
G1 X163.861 Y81.86 E5.45608
G1 X164.37 Y82.546 E5.49586
G1 X164.755 Y83.233 E5.53253
G1 X165.053 Y83.962 E5.5692
G1 X165.26 Y84.737 E5.60655
G1 X165.4 Y85.957 E5.66373
G1 X165.4 Y123.343 E7.40458
G1 X165.391 Y124.07 E7.43844
G1 X165.32 Y124.927 E7.47848
G1 X165.159 Y125.693 E7.51493
G1 X164.93 Y126.372 E7.54829
G1 X164.593 Y127.082 E7.58489
G1 X164.212 Y127.69 E7.6183
G1 X163.621 Y128.408 E7.6616
G1 X163.099 Y128.897 E7.69491
G1 X162.523 Y129.326 E7.72835
G1 X161.716 Y129.78 E7.77147
G1 X161.05 Y130.049 E7.80491
G1 X160.317 Y130.252 E7.84033
G1 X159.045 Y130.4 E7.89996
G1 X51.625 Y130.4 E12.90188
G1 X50.927 Y130.391 E12.93439
G1 X50.071 Y130.32 E12.97438
G1 X49.366 Y130.175 E13.0079
G1 X48.56 Y129.902 E13.04752
G1 X47.915 Y129.591 E13.08087
G1 X47.248 Y129.166 E13.11769
G1 X46.59 Y128.619 E13.15754
G1 X46.101 Y128.097 E13.19084
G1 X45.634 Y127.463 E13.22751
G1 X45.279 Y126.838 E13.26098
G1 X44.95 Y126.048 E13.30083
G1 X44.747 Y125.316 E13.3362
G1 X44.6 Y124.039 E13.39605
G1 X44.6 Y86.587 E15.13998
G1 X44.609 Y85.922 E15.17094
G1 X44.68 Y85.07 E15.21075
G1 X44.825 Y84.369 E15.24409
G1 X45.075 Y83.618 E15.28094
G1 X45.448 Y82.846 E15.32087
G1 X45.878 Y82.186 E15.35755
G1 X46.384 Y81.587 E15.39406
G1 X46.91 Y81.096 E15.42756
G1 X47.544 Y80.631 E15.46417
M204 S3000
M205 X10 Y10
G0 F3000 X47.875 Y81.083
M204 S1800
M205 X8 Y8
G1 F2400 X48.504 Y80.735 E15.49765
G1 X49.17 Y80.467 E15.53107
G1 X49.88 Y80.281 E15.56525
G1 X50.956 Y80.16 E15.61567
G1 X158.301 Y80.16 E20.6141
G1 X159.075 Y80.171 E20.65015
G1 X159.824 Y80.231 E20.68514
G1 X160.529 Y80.377 E20.71866
G1 X161.145 Y80.583 E20.7489
G1 X161.855 Y80.922 E20.78554
G1 X162.458 Y81.311 E20.81895
G1 X162.959 Y81.725 E20.84922
G1 X163.455 Y82.246 E20.88271
G1 X163.883 Y82.822 E20.91613
G1 X164.238 Y83.448 E20.94964
G1 X164.513 Y84.111 E20.98306
G1 X164.704 Y84.803 E21.01649
G1 X164.84 Y85.957 E21.07059
G1 X164.84 Y123.336 E22.81112
G1 X164.831 Y124.063 E22.84497
G1 X164.772 Y124.814 E22.88005
G1 X164.627 Y125.517 E22.91347
G1 X164.423 Y126.134 E22.94373
G1 X164.118 Y126.785 E22.97721
G1 X163.737 Y127.393 E23.01062
G1 X163.236 Y128.001 E23.0473
G1 X162.764 Y128.448 E23.07757
G1 X162.188 Y128.877 E23.11102
G1 X161.503 Y129.262 E23.1476
G1 X160.901 Y129.509 E23.1779
G1 X160.168 Y129.712 E23.21332
G1 X159.045 Y129.84 E23.26595
G1 X51.632 Y129.84 E28.26755
G1 X50.934 Y129.831 E28.30005
G1 X50.184 Y129.771 E28.33509
G1 X49.479 Y129.626 E28.3686
G1 X48.8 Y129.396 E28.40199
G1 X48.213 Y129.117 E28.43225
G1 X47.604 Y128.734 E28.46575
G1 X46.997 Y128.234 E28.50237
G1 X46.55 Y127.762 E28.53264
G1 X46.121 Y127.186 E28.56608
G1 X45.766 Y126.561 E28.59955
G1 X45.49 Y125.898 E28.63299
G1 X45.287 Y125.166 E28.66836
G1 X45.16 Y124.039 E28.72117
G1 X45.16 Y86.595 E30.46472
G1 X45.169 Y85.93 E30.49569
G1 X45.229 Y85.18 E30.53072
G1 X45.357 Y84.543 E30.56098
G1 X45.58 Y83.859 E30.59448
G1 X45.919 Y83.149 E30.63111
G1 X46.308 Y82.545 E30.66457
G1 X46.769 Y81.994 E30.69802
G1 X47.241 Y81.548 E30.72826
G1 X47.875 Y81.083 E30.76487
M204 S3000
M205 X10 Y10
G0 F3000 X48.149 Y81.571
M204 S1800
M205 X8 Y8
G1 F2400 X48.716 Y81.253 E30.79514
G1 X49.317 Y81.007 E30.82538
G1 X49.944 Y80.837 E30.85563
G1 X50.956 Y80.72 E30.90306
G1 X158.293 Y80.72 E35.90112
G1 X159.067 Y80.731 E35.93717
G1 X159.714 Y80.78 E35.96738
G1 X160.351 Y80.908 E35.99764
G1 X160.967 Y81.114 E36.02788
G1 X161.554 Y81.394 E36.05816
G1 X162.101 Y81.743 E36.08838
G1 X162.602 Y82.157 E36.11864
G1 X163.047 Y82.63 E36.14888
G1 X163.432 Y83.154 E36.17916
G1 X163.749 Y83.721 E36.20941
G1 X163.994 Y84.322 E36.23963
G1 X164.163 Y84.949 E36.26987
G1 X164.28 Y85.957 E36.31712
G1 X164.28 Y123.329 E38.05731
G1 X164.271 Y124.056 E38.09117
G1 X164.223 Y124.704 E38.12142
G1 X164.095 Y125.341 E38.15168
G1 X163.891 Y125.958 E38.18194
G1 X163.612 Y126.545 E38.2122
G1 X163.264 Y127.093 E38.24243
G1 X162.851 Y127.594 E38.27266
G1 X162.379 Y128.041 E38.30293
G1 X161.856 Y128.426 E38.33317
G1 X161.29 Y128.744 E38.3634
G1 X160.688 Y128.991 E38.3937
G1 X160.062 Y129.161 E38.42391
G1 X159.045 Y129.28 E38.47159
G1 X51.639 Y129.28 E43.47286
G1 X50.941 Y129.271 E43.50536
G1 X50.293 Y129.222 E43.53562
G1 X49.656 Y129.095 E43.56587
G1 X49.04 Y128.89 E43.5961
G1 X48.453 Y128.611 E43.62636
G1 X47.905 Y128.262 E43.65662
G1 X47.404 Y127.849 E43.68685
G1 X46.957 Y127.377 E43.71712
G1 X46.572 Y126.854 E43.74736
G1 X46.254 Y126.287 E43.77763
G1 X46.008 Y125.686 E43.80787
G1 X45.838 Y125.059 E43.83812
G1 X45.72 Y124.039 E43.88593
G1 X45.72 Y86.603 E45.62911
G1 X45.729 Y85.938 E45.66008
G1 X45.778 Y85.29 E45.69034
G1 X45.906 Y84.653 E45.72059
G1 X46.111 Y84.036 E45.75086
G1 X46.391 Y83.45 E45.78111
G1 X46.74 Y82.902 E45.81136
G1 X47.154 Y82.401 E45.84162
G1 X47.626 Y81.955 E45.87186
G1 X48.149 Y81.571 E45.90207
M204 S3000
M205 X10 Y10
G1 F2400 E39.90207
;MESH:P113_case_front-Lichaam.stl
G0 F3000 X51.414 Y85.335
G0 X51.414 Y86.414
G0 X66.247 Y106.224
G0 X67.006 Y107.036
G0 X69.838 Y108.887
M204 S1800
M205 X8 Y8
;TYPE:WALL-INNER
G1 F2400 E45.90207
G1 F1500 X68.887 Y108.869 E45.94636
G1 X67.971 Y108.654 E45.99017
G1 X67.353 Y108.4 E46.02129
G1 X66.643 Y107.988 E46.05951
G1 X66.068 Y107.497 E46.09472
G1 X65.462 Y106.777 E46.13854
G1 X65.08 Y106.115 E46.17413
G1 X64.739 Y105.211 E46.21912
G1 X64.605 Y104.242 E46.26467
G1 X64.641 Y103.295 E46.3088
G1 X64.89 Y102.321 E46.35561
G1 X65.315 Y101.444 E46.40099
G1 X65.878 Y100.685 E46.44499
G1 X66.528 Y100.107 E46.48549
G1 X67.079 Y99.736 E46.51642
G1 X67.936 Y99.346 E46.56027
G1 X68.822 Y99.145 E46.60257
G1 X69.387 Y99.096 E46.62898
G1 X70.122 Y99.136 E46.66325
G1 X70.925 Y99.315 E46.70156
G1 X71.536 Y99.534 E46.73179
G1 X72.343 Y100.008 E46.77537
G1 X72.904 Y100.466 E46.80909
G1 X73.547 Y101.225 E46.85541
G1 X74.062 Y102.132 E46.90398
G1 X74.348 Y103.257 E46.95803
G1 X74.399 Y104.256 E47.0046
G1 X74.266 Y105.242 E47.05093
G1 X73.823 Y106.312 E47.10486
G1 X73.25 Y107.201 E47.15411
G1 X72.375 Y107.965 E47.2082
G1 X71.745 Y108.359 E47.2428
G1 X71.258 Y108.573 E47.26757
G1 X70.398 Y108.818 E47.3092
G1 X69.838 Y108.887 E47.33548
M204 S3000
M205 X10 Y10
G0 F3000 X69.808 Y108.327
M204 S1800
M205 X8 Y8
G1 F1500 X68.963 Y108.31 E47.37483
G1 X68.136 Y108.119 E47.41435
G1 X67.69 Y107.945 E47.43665
G1 X66.968 Y107.529 E47.47545
G1 X66.463 Y107.1 E47.5063
G1 X65.92 Y106.455 E47.54556
G1 X65.587 Y105.877 E47.57662
G1 X65.285 Y105.07 E47.61674
G1 X65.16 Y104.213 E47.65707
G1 X65.199 Y103.363 E47.69669
G1 X65.423 Y102.515 E47.73753
G1 X65.794 Y101.735 E47.77775
G1 X66.323 Y101.036 E47.81857
G1 X66.946 Y100.486 E47.85727
G1 X67.348 Y100.227 E47.87954
G1 X68.116 Y99.883 E47.91872
G1 X68.918 Y99.696 E47.95707
G1 X69.447 Y99.66 E47.98176
G1 X70.078 Y99.696 E48.01119
G1 X70.8 Y99.861 E48.04567
G1 X71.301 Y100.045 E48.07052
G1 X72.022 Y100.467 E48.10943
G1 X72.534 Y100.893 E48.14044
G1 X73.082 Y101.542 E48.17999
G1 X73.521 Y102.306 E48.22102
G1 X73.794 Y103.37 E48.27217
G1 X73.836 Y104.191 E48.31045
G1 X73.721 Y105.105 E48.35334
G1 X73.327 Y106.041 E48.40063
G1 X72.825 Y106.829 E48.44414
G1 X72.043 Y107.518 E48.49267
G1 X71.533 Y107.832 E48.52056
G1 X71.067 Y108.046 E48.54443
G1 X70.276 Y108.268 E48.58269
G1 X69.808 Y108.327 E48.60465
M204 S3000
M205 X10 Y10
G0 F3000 X69.815 Y108.39
G0 X105.15 Y110.399
M204 S1800
M205 X8 Y8
G1 F1500 X104.227 Y110.355 E48.64768
G1 X103.53 Y110.232 E48.68064
G1 X102.361 Y109.837 E48.7381
G1 X101.291 Y109.213 E48.79577
G1 X100.751 Y108.79 E48.82771
G1 X100.083 Y108.098 E48.8725
G1 X99.38 Y107.079 E48.93015
G1 X98.902 Y105.942 E48.98758
G1 X98.724 Y105.255 E49.02062
G1 X98.6 Y104.04 E49.07749
G1 X98.631 Y103.32 E49.11105
G1 X98.87 Y102.158 E49.16629
G1 X99.113 Y101.481 E49.19978
G1 X99.7 Y100.406 E49.25682
G1 X100.312 Y99.631 E49.3028
G1 X101.26 Y98.804 E49.36138
G1 X102.36 Y98.159 E49.42075
G1 X103.54 Y97.761 E49.47874
G1 X104.283 Y97.639 E49.5138
G1 X104.936 Y97.601 E49.54426
G1 X105.768 Y97.641 E49.58305
G1 X106.473 Y97.765 E49.61638
G1 X107.67 Y98.177 E49.67532
G1 X108.741 Y98.799 E49.73299
G1 X109.678 Y99.634 E49.79144
G1 X110.277 Y100.375 E49.8358
G1 X110.643 Y100.976 E49.86857
G1 X111.104 Y102.082 E49.92436
G1 X111.267 Y102.702 E49.95421
G1 X111.39 Y103.651 E49.99877
G1 X111.39 Y104.34 E50.03086
G1 X111.275 Y105.256 E50.07384
G1 X111.121 Y105.866 E50.10314
G1 X110.881 Y106.518 E50.13549
G1 X110.297 Y107.588 E50.19225
G1 X109.681 Y108.363 E50.23835
G1 X108.74 Y109.202 E50.29705
G1 X107.669 Y109.82 E50.35463
G1 X106.976 Y110.085 E50.38918
G1 X106.366 Y110.249 E50.41859
G1 X105.854 Y110.343 E50.44283
G1 X105.15 Y110.399 E50.47572
M204 S3000
M205 X10 Y10
G0 F3000 X105.132 Y109.836
M204 S1800
M205 X8 Y8
G1 F1500 X104.339 Y109.8 E50.51268
G1 X103.677 Y109.691 E50.54392
G1 X102.596 Y109.321 E50.59712
G1 X101.605 Y108.753 E50.65031
G1 X101.091 Y108.336 E50.68113
G1 X100.517 Y107.744 E50.71953
G1 X99.862 Y106.789 E50.77345
G1 X99.429 Y105.752 E50.82578
G1 X99.274 Y105.152 E50.85463
G1 X99.157 Y104.016 E50.90781
G1 X99.187 Y103.42 E50.9356
G1 X99.41 Y102.307 E50.98845
G1 X99.625 Y101.709 E51.01804
G1 X100.167 Y100.715 E51.07076
G1 X100.723 Y100.021 E51.11217
G1 X101.588 Y99.258 E51.16588
G1 X102.591 Y98.672 E51.21997
G1 X103.676 Y98.306 E51.27329
G1 X104.325 Y98.198 E51.30392
G1 X104.868 Y98.16 E51.32927
G1 X105.762 Y98.208 E51.37096
G1 X106.325 Y98.307 E51.39758
G1 X107.408 Y98.671 E51.45078
G1 X108.409 Y99.259 E51.50483
G1 X109.273 Y100.02 E51.55845
G1 X109.818 Y100.695 E51.59884
G1 X110.138 Y101.228 E51.62779
G1 X110.573 Y102.26 E51.67994
G1 X110.728 Y102.863 E51.70893
G1 X110.831 Y103.688 E51.74764
G1 X110.831 Y104.305 E51.77637
G1 X110.733 Y105.102 E51.81377
G1 X110.585 Y105.704 E51.84263
G1 X110.371 Y106.289 E51.87164
G1 X109.832 Y107.281 E51.92421
G1 X109.275 Y107.978 E51.96575
G1 X108.408 Y108.742 E52.01956
G1 X107.434 Y109.31 E52.07206
G1 X106.826 Y109.546 E52.10243
G1 X106.338 Y109.682 E52.12602
G1 X105.758 Y109.792 E52.15351
G1 X105.132 Y109.836 E52.18273
M204 S3000
M205 X10 Y10
G0 F3000 X105.129 Y109.897
G0 X140.838 Y108.887
M204 S1800
M205 X8 Y8
G1 F1500 X139.887 Y108.869 E52.22702
G1 X138.971 Y108.654 E52.27083
G1 X138.353 Y108.4 E52.30195
G1 X137.648 Y107.991 E52.3399
G1 X137.065 Y107.501 E52.37536
G1 X136.444 Y106.76 E52.42038
G1 X136.065 Y106.093 E52.4561
G1 X135.734 Y105.173 E52.50163
G1 X135.601 Y104.242 E52.54542
G1 X135.646 Y103.259 E52.59124
G1 X135.893 Y102.323 E52.63632
G1 X136.3 Y101.459 E52.68079
G1 X136.901 Y100.657 E52.72746
G1 X137.528 Y100.107 E52.76629
G1 X138.079 Y99.736 E52.79722
G1 X138.936 Y99.346 E52.84107
G1 X139.822 Y99.145 E52.88337
G1 X140.387 Y99.096 E52.90978
G1 X141.122 Y99.136 E52.94405
G1 X142.009 Y99.337 E52.9864
G1 X142.563 Y99.549 E53.01402
G1 X143.328 Y99.998 E53.05533
G1 X143.948 Y100.508 E53.09271
G1 X144.55 Y101.24 E53.13684
G1 X145.054 Y102.117 E53.18394
G1 X145.352 Y103.265 E53.23917
G1 X145.398 Y104.255 E53.28532
G1 X145.264 Y105.244 E53.33179
G1 X144.817 Y106.314 E53.38579
G1 X144.265 Y107.18 E53.43361
G1 X143.375 Y107.965 E53.48886
G1 X142.745 Y108.359 E53.52346
G1 X142.258 Y108.573 E53.54823
G1 X141.398 Y108.818 E53.58987
G1 X140.838 Y108.887 E53.61615
M204 S3000
M205 X10 Y10
G0 F3000 X140.808 Y108.327
M204 S1800
M205 X8 Y8
G1 F1500 X139.963 Y108.31 E53.6555
G1 X139.136 Y108.119 E53.69502
G1 X138.69 Y107.945 E53.71731
G1 X137.97 Y107.53 E53.75601
G1 X137.459 Y107.101 E53.78708
G1 X136.933 Y106.473 E53.82522
G1 X136.596 Y105.896 E53.85634
G1 X136.283 Y105.062 E53.89782
G1 X136.165 Y104.23 E53.93695
G1 X136.202 Y103.346 E53.97815
G1 X136.422 Y102.507 E54.01853
G1 X136.797 Y101.723 E54.059
G1 X137.315 Y101.045 E54.09873
G1 X137.945 Y100.486 E54.13795
G1 X138.348 Y100.227 E54.16026
G1 X139.116 Y99.883 E54.19944
G1 X139.918 Y99.696 E54.23779
G1 X140.447 Y99.66 E54.26248
G1 X141.078 Y99.696 E54.29191
G1 X141.882 Y99.884 E54.33035
G1 X142.326 Y100.061 E54.35261
G1 X143.013 Y100.461 E54.38963
G1 X143.516 Y100.876 E54.41999
G1 X144.082 Y101.541 E54.46065
G1 X144.533 Y102.33 E54.50297
G1 X144.796 Y103.35 E54.55202
G1 X144.836 Y104.195 E54.59141
G1 X144.72 Y105.1 E54.6339
G1 X144.319 Y106.057 E54.68221
G1 X143.818 Y106.83 E54.72511
G1 X143.044 Y107.517 E54.7733
G1 X142.533 Y107.832 E54.80125
G1 X142.067 Y108.046 E54.82513
G1 X141.276 Y108.268 E54.86338
G1 X140.808 Y108.327 E54.88535
M204 S3000
M205 X10 Y10
G0 F3000 X140.815 Y108.39
G0 X142.066 Y108.049
G0 X150.664 Y102.653
M204 S1800
M205 X8 Y8
G1 F1500 X150.05 Y102.57 E54.9142
G1 X149.461 Y102.381 E54.943
G1 X148.848 Y102.028 E54.97594
G1 X148.296 Y101.461 E55.01279
G1 X148.065 Y101.145 E55.03101
G1 X147.807 Y100.656 E55.05676
G1 X147.587 Y99.656 E55.10443
G1 X147.65 Y98.948 E55.13753
G1 X147.828 Y98.321 E55.16788
G1 X148.158 Y97.677 E55.20158
G1 X148.795 Y97.022 E55.24412
G1 X149.021 Y96.859 E55.2571
G1 X149.857 Y96.463 E55.30017
G1 X150.585 Y96.35 E55.33447
G1 X151.354 Y96.403 E55.37037
G1 X152.046 Y96.618 E55.40411
G1 X152.674 Y96.994 E55.43819
G1 X153.2 Y97.535 E55.47333
G1 X153.429 Y97.847 E55.49135
G1 X153.726 Y98.504 E55.52492
G1 X153.904 Y99.285 E55.56222
G1 X153.855 Y100.045 E55.59768
G1 X153.705 Y100.584 E55.62374
G1 X153.422 Y101.162 E55.6537
G1 X153.2 Y101.461 E55.67104
G1 X152.674 Y102.002 E55.70618
G1 X152.169 Y102.307 E55.73365
G1 X151.884 Y102.431 E55.74812
G1 X151.312 Y102.597 E55.77586
G1 X150.664 Y102.653 E55.80614
M204 S3000
M205 X10 Y10
G0 F3000 X150.647 Y102.087
M204 S1800
M205 X8 Y8
G1 F1500 X150.174 Y102.024 E55.82836
G1 X149.614 Y101.824 E55.85605
G1 X149.198 Y101.585 E55.87839
G1 X148.697 Y101.07 E55.91185
G1 X148.34 Y100.469 E55.9444
G1 X148.166 Y99.689 E55.98161
G1 X148.204 Y99.029 E56.01239
G1 X148.351 Y98.52 E56.03706
G1 X148.625 Y97.999 E56.06447
G1 X149.245 Y97.372 E56.10553
G1 X150.016 Y97.015 E56.14509
G1 X150.674 Y96.917 E56.17607
G1 X151.298 Y96.966 E56.20522
G1 X151.882 Y97.173 E56.23407
G1 X152.313 Y97.426 E56.25734
G1 X152.894 Y98.023 E56.29613
G1 X153.18 Y98.629 E56.32733
G1 X153.342 Y99.337 E56.36115
G1 X153.292 Y99.993 E56.39179
G1 X153.169 Y100.423 E56.41261
G1 X152.887 Y100.979 E56.44164
G1 X152.313 Y101.57 E56.48
G1 X151.72 Y101.895 E56.51149
G1 X151.21 Y102.046 E56.53626
G1 X150.647 Y102.087 E56.56254
M204 S3000
M205 X10 Y10
G0 F3000 X150.639 Y102.147
G0 X157.6 Y122.6
M204 S1800
M205 X8 Y8
G1 F1500 X157.6 Y87.4 E58.2016
G1 X52.4 Y87.4 E63.10016
G1 X52.4 Y122.6 E64.73922
G1 X157.6 Y122.6 E69.63777
M204 S3000
M205 X10 Y10
