;FLAVOR:Marlin
;TIME:5758
;Filament used: 4.2194m
;Layer height: 0.2
;MINX:44.6
;MINY:79.6
;MINZ:0.2
;MAXX:165.4
;MAXY:130.4
;MAXZ:3
;TARGET_MACHINE.NAME:Anycubic i3 Mega
;Generated with Cura_SteamEngine 5.8.1
M140 S60
M105
M190 S60
M104 S200
M105
M109 S200
M82 ;absolute extrusion mode
G21 ;metric values
G90 ;absolute positioning
M82 ;set extruder to absolute mode
M107 ;start with the fan off
G28 X0 Y0 ;move X/Y to min endstops
G28 Z0 ;move Z to min endstops
G1 Z15.0 F100 ;move the platform down 15mm
G92 E0 ;zero the extruded length
G1 F200 E3 ;extrude 3mm of feed stock
G92 E0 ;zero the extruded length again
G1 F100
G0 Y20 F100
M117 Printing...
G5
G92 E0
G92 E0
G1 F2400 E-6
;LAYER_COUNT:15
;LAYER:0
M107
M204 S3000
M205 X10 Y10
G1 F600 Z0.275
G0 F3000 X47.544 Y80.631 Z0.275
M204 S1800
M205 X8 Y8
;TYPE:SKIRT
G1 F600 Z0.2
G1 F2400 E0
G1 X48.295 Y80.215 E0.03998
G1 X48.961 Y79.947 E0.0734
G1 X49.738 Y79.739 E0.11086
G1 X50.956 Y79.6 E0.16794
G1 X158.309 Y79.6 E5.16675
G1 X159.083 Y79.611 E5.20279
G1 X159.869 Y79.673 E5.23951
G1 X160.707 Y79.846 E5.27935
G1 X161.323 Y80.052 E5.30959
G1 X162.159 Y80.451 E5.35273
G1 X162.815 Y80.879 E5.3892
G1 X163.365 Y81.339 E5.42259
G1 X163.861 Y81.86 E5.45608
G1 X164.37 Y82.546 E5.49586
G1 X164.755 Y83.233 E5.53253
G1 X165.053 Y83.962 E5.5692
G1 X165.26 Y84.737 E5.60655
G1 X165.4 Y85.957 E5.66373
G1 X165.4 Y123.343 E7.40458
G1 X165.391 Y124.07 E7.43844
G1 X165.32 Y124.927 E7.47848
G1 X165.159 Y125.693 E7.51493
G1 X164.93 Y126.372 E7.54829
G1 X164.593 Y127.082 E7.58489
G1 X164.212 Y127.69 E7.6183
G1 X163.621 Y128.408 E7.6616
G1 X163.099 Y128.897 E7.69491
G1 X162.523 Y129.326 E7.72835
G1 X161.716 Y129.78 E7.77147
G1 X161.05 Y130.049 E7.80491
G1 X160.317 Y130.252 E7.84033
G1 X159.045 Y130.4 E7.89996
G1 X51.625 Y130.4 E12.90188
G1 X50.927 Y130.391 E12.93439
G1 X50.071 Y130.32 E12.97438
G1 X49.366 Y130.175 E13.0079
G1 X48.56 Y129.902 E13.04752
G1 X47.915 Y129.591 E13.08087
G1 X47.248 Y129.166 E13.11769
G1 X46.59 Y128.619 E13.15754
G1 X46.101 Y128.097 E13.19084
G1 X45.634 Y127.463 E13.22751
G1 X45.279 Y126.838 E13.26098
G1 X44.95 Y126.048 E13.30083
G1 X44.747 Y125.316 E13.3362
G1 X44.6 Y124.039 E13.39605
G1 X44.6 Y86.587 E15.13998
G1 X44.609 Y85.922 E15.17094
G1 X44.68 Y85.07 E15.21075
G1 X44.825 Y84.369 E15.24409
G1 X45.075 Y83.618 E15.28094
G1 X45.448 Y82.846 E15.32087
G1 X45.878 Y82.186 E15.35755
G1 X46.384 Y81.587 E15.39406
G1 X46.91 Y81.096 E15.42756
G1 X47.544 Y80.631 E15.46417
M204 S3000
M205 X10 Y10
G0 F3000 X47.875 Y81.083
M204 S1800
M205 X8 Y8
G1 F2400 X48.504 Y80.735 E15.49765
G1 X49.17 Y80.467 E15.53107
G1 X49.88 Y80.281 E15.56525
G1 X50.956 Y80.16 E15.61567
G1 X158.301 Y80.16 E20.6141
G1 X159.075 Y80.171 E20.65015
G1 X159.824 Y80.231 E20.68514
G1 X160.529 Y80.377 E20.71866
G1 X161.145 Y80.583 E20.7489
G1 X161.855 Y80.922 E20.78554
G1 X162.458 Y81.311 E20.81895
G1 X162.959 Y81.725 E20.84922
G1 X163.455 Y82.246 E20.88271
G1 X163.883 Y82.822 E20.91613
G1 X164.238 Y83.448 E20.94964
G1 X164.513 Y84.111 E20.98306
G1 X164.704 Y84.803 E21.01649
G1 X164.84 Y85.957 E21.07059
G1 X164.84 Y123.336 E22.81112
G1 X164.831 Y124.063 E22.84497
G1 X164.772 Y124.814 E22.88005
G1 X164.627 Y125.517 E22.91347
G1 X164.423 Y126.134 E22.94373
G1 X164.118 Y126.785 E22.97721
G1 X163.737 Y127.393 E23.01062
G1 X163.236 Y128.001 E23.0473
G1 X162.764 Y128.448 E23.07757
G1 X162.188 Y128.877 E23.11102
G1 X161.503 Y129.262 E23.1476
G1 X160.901 Y129.509 E23.1779
G1 X160.168 Y129.712 E23.21332
G1 X159.045 Y129.84 E23.26595
G1 X51.632 Y129.84 E28.26755
G1 X50.934 Y129.831 E28.30005
G1 X50.184 Y129.771 E28.33509
G1 X49.479 Y129.626 E28.3686
G1 X48.8 Y129.396 E28.40199
G1 X48.213 Y129.117 E28.43225
G1 X47.604 Y128.734 E28.46575
G1 X46.997 Y128.234 E28.50237
G1 X46.55 Y127.762 E28.53264
G1 X46.121 Y127.186 E28.56608
G1 X45.766 Y126.561 E28.59955
G1 X45.49 Y125.898 E28.63299
G1 X45.287 Y125.166 E28.66836
G1 X45.16 Y124.039 E28.72117
G1 X45.16 Y86.595 E30.46472
G1 X45.169 Y85.93 E30.49569
G1 X45.229 Y85.18 E30.53072
G1 X45.357 Y84.543 E30.56098
G1 X45.58 Y83.859 E30.59448
G1 X45.919 Y83.149 E30.63111
G1 X46.308 Y82.545 E30.66457
G1 X46.769 Y81.994 E30.69802
G1 X47.241 Y81.548 E30.72826
G1 X47.875 Y81.083 E30.76487
M204 S3000
M205 X10 Y10
G0 F3000 X48.149 Y81.571
M204 S1800
M205 X8 Y8
G1 F2400 X48.716 Y81.253 E30.79514
G1 X49.317 Y81.007 E30.82538
G1 X49.944 Y80.837 E30.85563
G1 X50.956 Y80.72 E30.90306
G1 X158.293 Y80.72 E35.90112
G1 X159.067 Y80.731 E35.93717
G1 X159.714 Y80.78 E35.96738
G1 X160.351 Y80.908 E35.99764
G1 X160.967 Y81.114 E36.02788
G1 X161.554 Y81.394 E36.05816
G1 X162.101 Y81.743 E36.08838
G1 X162.602 Y82.157 E36.11864
G1 X163.047 Y82.63 E36.14888
G1 X163.432 Y83.154 E36.17916
G1 X163.749 Y83.721 E36.20941
G1 X163.994 Y84.322 E36.23963
G1 X164.163 Y84.949 E36.26987
G1 X164.28 Y85.957 E36.31712
G1 X164.28 Y123.329 E38.05731
G1 X164.271 Y124.056 E38.09117
G1 X164.223 Y124.704 E38.12142
G1 X164.095 Y125.341 E38.15168
G1 X163.891 Y125.958 E38.18194
G1 X163.612 Y126.545 E38.2122
G1 X163.264 Y127.093 E38.24243
G1 X162.851 Y127.594 E38.27266
G1 X162.379 Y128.041 E38.30293
G1 X161.856 Y128.426 E38.33317
G1 X161.29 Y128.744 E38.3634
G1 X160.688 Y128.991 E38.3937
G1 X160.062 Y129.161 E38.42391
G1 X159.045 Y129.28 E38.47159
G1 X51.639 Y129.28 E43.47286
G1 X50.941 Y129.271 E43.50536
G1 X50.293 Y129.222 E43.53562
G1 X49.656 Y129.095 E43.56587
G1 X49.04 Y128.89 E43.5961
G1 X48.453 Y128.611 E43.62636
G1 X47.905 Y128.262 E43.65662
G1 X47.404 Y127.849 E43.68685
G1 X46.957 Y127.377 E43.71712
G1 X46.572 Y126.854 E43.74736
G1 X46.254 Y126.287 E43.77763
G1 X46.008 Y125.686 E43.80787
G1 X45.838 Y125.059 E43.83812
G1 X45.72 Y124.039 E43.88593
G1 X45.72 Y86.603 E45.62911
G1 X45.729 Y85.938 E45.66008
G1 X45.778 Y85.29 E45.69034
G1 X45.906 Y84.653 E45.72059
G1 X46.111 Y84.036 E45.75086
G1 X46.391 Y83.45 E45.78111
G1 X46.74 Y82.902 E45.81136
G1 X47.154 Y82.401 E45.84162
G1 X47.626 Y81.955 E45.87186
G1 X48.149 Y81.571 E45.90207
M204 S3000
M205 X10 Y10
G1 F2400 E39.90207
;MESH:P113_case_back-Lichaam.stl
G0 F3000 X51.414 Y85.335
G0 X51.414 Y86.414
G0 X60.678 Y104.822
G0 X60.873 Y111.502
M204 S1800
M205 X8 Y8
;TYPE:WALL-INNER
G1 F2400 E45.90207
G1 F1500 X60.362 Y111.648 E45.92682
G1 X55.248 Y111.648 E46.16495
G1 X54.94 Y111.614 E46.17938
G1 X54.588 Y111.484 E46.19685
G1 X54.233 Y111.214 E46.21762
G1 X53.955 Y110.786 E46.24138
G1 X53.848 Y110.422 E46.25905
G1 X53.848 Y105.248 E46.49997
G1 X53.955 Y104.709 E46.52556
G1 X54.234 Y104.282 E46.54931
G1 X54.588 Y104.012 E46.57004
G1 X54.94 Y103.882 E46.58751
G1 X55.248 Y103.848 E46.60194
G1 X60.304 Y103.849 E46.83737
G1 X60.536 Y103.877 E46.84825
G1 X60.958 Y104.04 E46.86932
G1 X61.281 Y104.302 E46.88868
G1 X61.492 Y104.604 E46.90584
G1 X61.648 Y105.048 E46.92775
G1 X61.646 Y110.333 E47.17384
G1 X61.568 Y110.717 E47.19209
G1 X61.327 Y111.141 E47.2148
G1 X61.127 Y111.338 E47.22787
G1 X60.873 Y111.502 E47.24195
M204 S3000
M205 X10 Y10
G0 F3000 X54.852 Y111.15
G0 X54.852 Y110.99
M204 S1800
M205 X8 Y8
G1 F1500 X54.639 Y110.828 E47.25441
G1 X54.472 Y110.571 E47.26868
G1 X54.408 Y110.352 E47.27931
G1 X54.408 Y105.248 E47.51697
G1 X54.472 Y104.924 E47.53235
G1 X54.639 Y104.668 E47.54658
G1 X54.852 Y104.506 E47.55904
G1 X55.117 Y104.408 E47.5722
G1 X60.282 Y104.408 E47.8127
G1 X60.554 Y104.465 E47.82564
G1 X60.868 Y104.68 E47.84336
G1 X60.995 Y104.861 E47.85366
G1 X61.084 Y105.162 E47.86827
G1 X61.087 Y110.299 E48.10747
G1 X61.04 Y110.53 E48.11845
G1 X60.896 Y110.784 E48.13205
G1 X60.703 Y110.955 E48.14405
G1 X60.347 Y111.083 E48.16167
G1 X55.117 Y111.088 E48.4052
G1 X54.852 Y110.99 E48.41836
M204 S3000
M205 X10 Y10
G0 F3000 X54.852 Y111.15
G0 X157.6 Y122.6
M204 S1800
M205 X8 Y8
G1 F1500 X157.6 Y87.4 E50.05742
G1 X52.4 Y87.4 E54.95597
G1 X52.4 Y122.6 E56.59503
G1 X157.6 Y122.6 E61.49358
M204 S3000
M205 X10 Y10
G0 F3000 X158.16 Y123.16
M204 S1800
M205 X8 Y8
G1 F1500 X158.16 Y86.84 E63.18479
G1 X51.84 Y86.84 E68.1355
G1 X51.84 Y123.16 E69.82671
G1 X158.16 Y123.16 E74.77741
M204 S3000
M205 X10 Y10
G0 F3000 X158.72 Y123.72
M204 S1800
M205 X8 Y8
;TYPE:WALL-OUTER
G1 F1500 X158.72 Y86.28 E76.52078
G1 X51.28 Y86.28 E81.52363
G1 X51.28 Y123.72 E83.267
G1 X158.72 Y123.72 E88.26985
M204 S3000
M205 X10 Y10
G0 F3000 X158.72 Y123.52
G0 X158.13 Y123.13
G0 X60.281 Y111.15
G0 X60.281 Y110.527
M204 S1800
M205 X8 Y8
G1 F1500 X55.186 Y110.522 E88.5071
G1 X55.045 Y110.442 E88.51465
G1 X54.972 Y110.297 E88.5222
G1 X54.968 Y105.172 E88.76085
G1 X55.045 Y105.054 E88.76741
G1 X55.186 Y104.974 E88.77496
G1 X60.306 Y104.968 E89.01336
G1 X60.409 Y105.018 E89.0187
G1 X60.528 Y105.171 E89.02772
G1 X60.528 Y110.305 E89.26678
G1 X60.4 Y110.484 E89.27703
G1 X60.281 Y110.527 E89.28292
M204 S3000
M205 X10 Y10
G0 F3000 X60.081 Y110.527
G0 X60.081 Y111.15
G0 X54.422 Y111.078
G0 X53.128 Y105.161
M204 S1800
M205 X8 Y8
;TYPE:SKIN
G1 F717.2 X53.127 Y110.528 E89.70107
M204 S3000
M205 X10 Y10
G0 F3000 X54.422 Y111.078
G0 X60.908 Y112.072
M204 S1800
M205 X8 Y8
G1 F1200 X61.319 Y111.86 E89.72261
G1 X61.613 Y111.624 E89.74016
G1 X61.854 Y111.333 E89.75776
G1 X62.113 Y110.777 E89.78632
G1 X62.184 Y110.366 E89.80574
G1 X62.184 Y105.136 E90.04927
G1 X62.131 Y104.779 E90.06607
G1 X61.963 Y104.343 E90.08783
G1 X61.669 Y103.928 E90.11151
G1 X61.217 Y103.567 E90.13845
G1 X60.664 Y103.351 E90.16609
G1 X60.35 Y103.309 E90.18085
G1 X55.213 Y103.309 E90.42005
G1 X54.853 Y103.349 E90.43691
G1 X54.331 Y103.529 E90.46262
G1 X53.834 Y103.907 E90.4917
G1 X53.48 Y104.456 E90.52212
G1 X53.441 Y104.553 E90.52698
G1 F897.2 X53.128 Y105.161 E90.56957
G1 X52.94 Y104.504 E90.61213
G1 F1200 X52.94 Y87.94 E91.38342
G1 X157.06 Y87.94 E96.23169
G1 X157.06 Y122.06 E97.82046
G1 X52.94 Y122.06 E102.66872
G1 X52.94 Y111.028 E103.18241
G1 F898.4 X53.127 Y110.528 E103.21562
G1 X53.442 Y110.958 E103.24877
G1 F1200 X53.477 Y111.033 E103.25262
G1 X53.836 Y111.587 E103.28336
G1 X54.333 Y111.961 E103.31233
G1 X54.785 Y112.131 E103.33481
G1 X55.213 Y112.187 E103.35491
G1 X60.429 Y112.184 E103.59779
G1 X60.908 Y112.072 E103.6207
M204 S3000
M205 X10 Y10
G0 F3000 X53.22 Y121.329
M204 S1800
M205 X8 Y8
G1 F1200 X53.672 Y121.78 E103.65043
M204 S3000
M205 X10 Y10
G0 F3000 X54.463 Y121.78
M204 S1800
M205 X8 Y8
G1 F1200 X53.22 Y120.537 E103.73228
M204 S3000
M205 X10 Y10
G0 F3000 X53.22 Y119.745
M204 S1800
M205 X8 Y8
G1 F1200 X55.255 Y121.78 E103.86629
M204 S3000
M205 X10 Y10
G0 F3000 X56.047 Y121.78
M204 S1800
M205 X8 Y8
G1 F1200 X53.22 Y118.953 E104.05245
M204 S3000
M205 X10 Y10
G0 F3000 X53.22 Y118.161
M204 S1800
M205 X8 Y8
G1 F1200 X56.839 Y121.78 E104.29077
M204 S3000
M205 X10 Y10
G0 F3000 X57.631 Y121.78
M204 S1800
M205 X8 Y8
G1 F1200 X53.22 Y117.369 E104.58124
M204 S3000
M205 X10 Y10
G0 F3000 X53.22 Y116.577
M204 S1800
M205 X8 Y8
G1 F1200 X58.423 Y121.78 E104.92387
M204 S3000
M205 X10 Y10
G0 F3000 X59.215 Y121.78
M204 S1800
M205 X8 Y8
G1 F1200 X53.22 Y115.785 E105.31865
M204 S3000
M205 X10 Y10
G0 F3000 X53.22 Y114.993
M204 S1800
M205 X8 Y8
G1 F1200 X60.007 Y121.78 E105.76559
M204 S3000
M205 X10 Y10
G0 F3000 X60.799 Y121.78
M204 S1800
M205 X8 Y8
G1 F1200 X53.22 Y114.201 E106.26468
M204 S3000
M205 X10 Y10
G0 F3000 X53.22 Y113.409
M204 S1800
M205 X8 Y8
G1 F1200 X61.591 Y121.78 E106.81592
M204 S3000
M205 X10 Y10
G0 F3000 X62.383 Y121.78
M204 S1800
M205 X8 Y8
G1 F1200 X53.22 Y112.617 E107.41932
M204 S3000
M205 X10 Y10
G0 F3000 X53.22 Y111.825
M204 S1800
M205 X8 Y8
G1 F1200 X63.175 Y121.78 E108.07487
M204 S3000
M205 X10 Y10
G0 F3000 X63.967 Y121.78
M204 S1800
M205 X8 Y8
G1 F1200 X54.502 Y112.315 E108.69816
M204 S3000
M205 X10 Y10
G0 F3000 X55.444 Y112.465
M204 S1800
M205 X8 Y8
G1 F1200 X64.759 Y121.78 E109.31157
M204 S3000
M205 X10 Y10
G0 F3000 X65.551 Y121.78
M204 S1800
M205 X8 Y8
G1 F1200 X56.237 Y112.466 E109.92491
M204 S3000
M205 X10 Y10
G0 F3000 X57.029 Y112.466
M204 S1800
M205 X8 Y8
G1 F1200 X66.343 Y121.78 E110.53825
M204 S3000
M205 X10 Y10
G0 F3000 X67.135 Y121.78
M204 S1800
M205 X8 Y8
G1 F1200 X57.822 Y112.467 E111.15153
M204 S3000
M205 X10 Y10
G0 F3000 X58.614 Y112.467
M204 S1800
M205 X8 Y8
G1 F1200 X67.927 Y121.78 E111.76481
M204 S3000
M205 X10 Y10
G0 F3000 X68.719 Y121.78
M204 S1800
M205 X8 Y8
G1 F1200 X59.407 Y112.468 E112.37802
M204 S3000
M205 X10 Y10
G0 F3000 X60.199 Y112.468
M204 S1800
M205 X8 Y8
G1 F1200 X69.511 Y121.78 E112.99123
M204 S3000
M205 X10 Y10
G0 F3000 X70.303 Y121.78
M204 S1800
M205 X8 Y8
G1 F1200 X60.886 Y112.364 E113.61132
M204 S3000
M205 X10 Y10
G0 F3000 X61.428 Y112.114
M204 S1800
M205 X8 Y8
G1 F1200 X71.095 Y121.78 E114.24788
M204 S3000
M205 X10 Y10
G0 F3000 X71.887 Y121.78
M204 S1800
M205 X8 Y8
G1 F1200 X61.863 Y111.757 E114.90794
M204 S3000
M205 X10 Y10
G0 F3000 X62.183 Y111.284
M204 S1800
M205 X8 Y8
G1 F1200 X72.679 Y121.78 E115.59912
M204 S3000
M205 X10 Y10
G0 F3000 X73.471 Y121.78
M204 S1800
M205 X8 Y8
G1 F1200 X62.404 Y110.714 E116.32787
M204 S3000
M205 X10 Y10
G0 F3000 X62.463 Y109.981
M204 S1800
M205 X8 Y8
G1 F1200 X74.262 Y121.78 E117.10485
M204 S3000
M205 X10 Y10
G0 F3000 X75.054 Y121.78
M204 S1800
M205 X8 Y8
G1 F1200 X62.463 Y109.189 E117.93399
M204 S3000
M205 X10 Y10
G0 F3000 X62.463 Y108.397
M204 S1800
M205 X8 Y8
G1 F1200 X75.846 Y121.78 E118.81529
M204 S3000
M205 X10 Y10
G0 F3000 X76.638 Y121.78
M204 S1800
M205 X8 Y8
G1 F1200 X62.463 Y107.605 E119.74873
M204 S3000
M205 X10 Y10
G0 F3000 X62.463 Y106.813
M204 S1800
M205 X8 Y8
G1 F1200 X77.43 Y121.78 E120.73434
M204 S3000
M205 X10 Y10
G0 F3000 X78.222 Y121.78
M204 S1800
M205 X8 Y8
G1 F1200 X62.463 Y106.021 E121.77209
M204 S3000
M205 X10 Y10
G0 F3000 X62.463 Y105.229
M204 S1800
M205 X8 Y8
G1 F1200 X79.014 Y121.78 E122.86201
M204 S3000
M205 X10 Y10
G0 F3000 X79.806 Y121.78
M204 S1800
M205 X8 Y8
G1 F1200 X62.135 Y104.109 E124.02567
G1 X62.065 Y104.039
M204 S3000
M205 X10 Y10
G0 F3000 X61.343 Y103.317
M204 S1800
M205 X8 Y8
G1 F1200 X53.22 Y95.194 E124.56058
M204 S3000
M205 X10 Y10
G0 F3000 X53.22 Y95.986
M204 S1800
M205 X8 Y8
G1 F1200 X60.262 Y103.028 E125.02431
M204 S3000
M205 X10 Y10
G0 F3000 X59.47 Y103.028
M204 S1800
M205 X8 Y8
G1 F1200 X53.22 Y96.777 E125.43592
M204 S3000
M205 X10 Y10
G0 F3000 X53.22 Y97.569
M204 S1800
M205 X8 Y8
G1 F1200 X58.679 Y103.028 E125.7954
M204 S3000
M205 X10 Y10
G0 F3000 X57.887 Y103.028
M204 S1800
M205 X8 Y8
G1 F1200 X53.22 Y98.361 E126.10273
M204 S3000
M205 X10 Y10
G0 F3000 X53.22 Y99.153
M204 S1800
M205 X8 Y8
G1 F1200 X57.095 Y103.029 E126.35794
M204 S3000
M205 X10 Y10
G0 F3000 X56.304 Y103.03
M204 S1800
M205 X8 Y8
G1 F1200 X53.22 Y99.945 E126.56106
M204 S3000
M205 X10 Y10
G0 F3000 X53.22 Y100.737
M204 S1800
M205 X8 Y8
G1 F1200 X55.512 Y103.03 E126.71203
M204 S3000
M205 X10 Y10
G0 F3000 X54.779 Y103.088
M204 S1800
M205 X8 Y8
G1 F1200 X53.22 Y101.529 E126.81469
M204 S3000
M205 X10 Y10
G0 F3000 X53.22 Y102.321
M204 S1800
M205 X8 Y8
G1 F1200 X54.201 Y103.303 E126.87932
M204 S3000
M205 X10 Y10
G0 F3000 X53.736 Y103.629
M204 S1800
M205 X8 Y8
G1 F1200 X53.22 Y103.113 E126.9133
M204 S3000
M205 X10 Y10
G0 F3000 X53.22 Y103.905
M204 S1800
M205 X8 Y8
G1 F1200 X53.392 Y104.078 E126.92466
M204 S3000
M205 X10 Y10
G0 F3000 X53.22 Y94.402
M204 S1800
M205 X8 Y8
G1 F1200 X80.598 Y121.78 E128.72755
M204 S3000
M205 X10 Y10
G0 F3000 X81.39 Y121.78
M204 S1800
M205 X8 Y8
G1 F1200 X53.22 Y93.61 E130.58259
M204 S3000
M205 X10 Y10
G0 F3000 X53.22 Y92.818
M204 S1800
M205 X8 Y8
G1 F1200 X82.182 Y121.78 E132.48979
M204 S3000
M205 X10 Y10
G0 F3000 X82.974 Y121.78
M204 S1800
M205 X8 Y8
